public/favicon.svg

<svg height="64" viewBox="0 0 64 64" width="64" xmlns="http://www.w3.org/2000/svg" xmlns:xlink="http://www.w3.org/1999/xlink"><defs><filter id="a" height="109.3%" width="111.1%" x="-2.8%" y="-2.8%"><feOffset dx="3" dy="2" in="SourceAlpha" result="shadowOffsetOuter1"/><feColorMatrix in="shadowOffsetOuter1" values="0 0 0 0 0 0 0 0 0 0 0 0 0 0 0 0 0 0 1 0"/></filter><rect id="b" height="64" rx="8" width="64"/><path id="c" d="m323.063595 37.3841091c4.287886 1.7515034 6.801298 4.2649747 8.552248 8.5529618 1.463558 3.5848288 2.394517 8.4072162 3.384285 15.0629291.989512-6.6557129 1.920727-11.4781003 3.384285-15.0629291 1.75095-4.2879871 4.264362-6.8014584 8.551992-8.5529618 3.584232-1.4625693 8.408295-2.3958521 15.063595-3.3853876-6.6553-.9895355-11.479363-1.9202613-15.063595-3.3828306-4.28763-1.7515034-6.801042-4.2649747-8.551992-8.5529618-1.463558-3.5848288-2.394773-8.4072162-3.384285-15.0629291-.989768 6.6557129-1.920727 11.4781003-3.384285 15.0629291-1.75095 4.2879871-4.264362 6.8014584-8.552248 8.5529618-3.584232 1.4625693-8.40804 2.3932951-15.063595 3.3828306 6.655555.9895355 11.479363 1.9228183 15.063595 3.3853876"/><mask id="d" fill="#fff"><use fill="#fff" fill-rule="evenodd" xlink:href="#b"/></mask></defs><g fill="none" fill-rule="evenodd"><use fill="#000" xlink:href="#b"/><g mask="url(#d)"><g transform="translate(-303 -2)"><g stroke="#00ff58" stroke-linecap="round" stroke-linejoin="round"><path d="m317.685 11.75v179"/><path d="m341.968 14.5v166"/><path d="m0 51h355.487"/><path d="m18.525 27.5h343.471"/></g><g fill-rule="nonzero"><use fill="#000" filter="url(#a)" xlink:href="#c"/><use fill="#df30f7" xlink:href="#c"/></g></g></g></g></svg>

<svg xmlns="http://www.w3.org/2000/svg" xmlns:xlink="http://www.w3.org/1999/xlink" width="64" height="64" viewBox="0 0 64 64"><defs><filter id="d" width="111.1%" height="109.3%" x="-2.8%" y="-2.8%" filterUnits="objectBoundingBox"><feOffset dx="3" dy="2" in="SourceAlpha" result="shadowOffsetOuter1"/><feColorMatrix in="shadowOffsetOuter1" values="0 0 0 0 0 0 0 0 0 0 0 0 0 0 0 0 0 0 1 0"/></filter><rect id="a" width="64" height="64" x="0" y="0" rx="8"/><path id="c" d="M323.063595,37.3841091 C327.351481,39.1356125 329.864893,41.6490838 331.615843,45.9370709 C333.079401,49.5218997 334.01036,54.3442871 335.000128,61 C335.98964,54.3442871 336.920855,49.5218997 338.384413,45.9370709 C340.135363,41.6490838 342.648775,39.1356125 346.936405,37.3841091 C350.520637,35.9215398 355.3447,34.988257 362,33.9987215 C355.3447,33.009186 350.520637,32.0784602 346.936405,30.6158909 C342.648775,28.8643875 340.135363,26.3509162 338.384413,22.0629291 C336.920855,18.4781003 335.98964,13.6557129 335.000128,7 C334.01036,13.6557129 333.079401,18.4781003 331.615843,22.0629291 C329.864893,26.3509162 327.351481,28.8643875 323.063595,30.6158909 C319.479363,32.0784602 314.655555,33.009186 308,33.9987215 C314.655555,34.988257 319.479363,35.9215398 323.063595,37.3841091"/></defs><g fill="none" fill-rule="evenodd"><mask id="b" fill="#fff"><use xlink:href="#a"/></mask><use xlink:href="#a" fill="#000"/><g mask="url(#b)"><g transform="translate(-303 -2)"><g stroke-linecap="round" stroke-linejoin="round"><line x1="317.685" x2="317.685" y1="11.75" y2="190.75" stroke="#7C00FF"/><line x1="341.968" x2="341.968" y1="14.5" y2="180.5" stroke="#7C00FF"/><line x2="355.487" y1="51" y2="51" stroke="#7C00FF"/><line x1="18.525" x2="361.996" y1="27.5" y2="27.5" stroke="#7C00FF"/></g><g fill-rule="nonzero"><use xlink:href="#c" fill="#000" filter="url(#d)"/><use xlink:href="#c" fill="#F7E330"/></g></g></g></g></svg>
